X: 26
T:Glorisher, Bledington
T:Leapfrog, Bledington
M:4/4
L:1/4
Q:120
A:Bledington
P:(AB)4
K:Bb
P:A
F|B2 B>c|B2 F2|DE FG|F2 F2|\
B2 B>c|B2 F2|DE FG|F2 F2|
B2 B>c|B2 B2|AB cd|c2 c2|\
B/c/d/c/ Bf/e/|dc B2||
P:B
dd d/e/f/d/|ec cc|dd/c/ Bd|c/B/A/G/ F2|
BA/G/ FB|cB/A/ Bc|dc/B/ Ac|B2 B:|

